X: 21253
T: The BOHEMIAN WALTZ
C: Lanner.
Q: "Moderately fast."
%R: waltz
B: W. Hamilton "Universal Tune-Book" Vol. 2 Glasgow 1846 p.125 #3
S: http://s3-eu-west-1.amazonaws.com/itma.dl.printmaterial/book_pdfs/hamiltonvol2web.pdf
Z: 2016 John Chambers <jc:trillian.mit.edu>
M: 3/8
L: 1/8
K: D
% - - - - - - - - - - - - - - - - - - - - - - - - -
(A/G/) |\
FAd | Adb | a3 | fba |\
a2g | eba | a2f | d2 (A/G/) |\
FAd | Adb | a3 | fba |\
a2g | eba | f3 | "^Fine."d2 H|]
"8va ad lib."D |\
DGA | B<Gz | E<Gz | D<Gz |\
DGA | B<Gz | A<dd | =cBA |\
DGA | B<Gz | E<Gz | D<Gz |\
DGA | B<dd | =cBA | "^D.C."G2 |]
% - - - - - - - - - - - - - - - - - - - - - - - - -

%%sep 1 1 500
%%sep 1 1 500

